packages/foundations/assets/icons/functional/images/maps/navigation_to_right_32.svg

<svg width="32" height="32" viewBox="0 0 32 32" fill="none" xmlns="http://www.w3.org/2000/svg">
<g clip-path="url(#clip0_2213_5402)">
<path fill-rule="evenodd" clip-rule="evenodd" d="M15.5 10.9C12.7386 10.9 10.5 13.1386 10.5 15.9V26.9C10.5 27.4523 10.0523 27.9 9.5 27.9C8.94772 27.9 8.5 27.4523 8.5 26.9V15.9C8.5 12.034 11.634 8.89998 15.5 8.89998H20.078L16.9986 5.82373C16.7995 5.62481 16.7 5.3817 16.7 5.0944C16.7 4.56401 17.1313 4.09998 17.6953 4.09998C17.9607 4.09998 18.2261 4.1994 18.3919 4.39824L23.2806 9.28066C23.4269 9.44536 23.5 9.67267 23.5 9.89998C23.5 10.132 23.4005 10.3972 23.2014 10.5961L18.1919 15.6017C18.0261 15.7674 17.7607 15.9 17.4953 15.9C16.9313 15.9 16.5 15.4359 16.5 14.9056C16.5 14.6404 16.5995 14.3752 16.7986 14.1762L20.078 10.9H15.5Z" fill="#1A1C1F"/>
</g>
<defs>
<clipPath id="clip0_2213_5402">
<rect width="32" height="32" fill="white"/>
</clipPath>
</defs>
</svg>

<svg xmlns="http://www.w3.org/2000/svg" width="32" height="32" fill="none"><g clip-path="url(#a)"><path fill="#1A1C1F" fill-rule="evenodd" d="M15.5 10.9a5 5 0 0 0-5 5v11a1 1 0 1 1-2 0v-11a7 7 0 0 1 7-7h4.578l-3.08-3.076a1 1 0 0 1-.298-.73c0-.53.431-.994.995-.994.266 0 .531.1.697.298l4.889 4.883c.146.164.219.392.219.619 0 .232-.1.497-.299.696l-5.01 5.006a1.03 1.03 0 0 1-.696.298 1 1 0 0 1-.995-.994c0-.266.1-.53.299-.73l3.279-3.276z" clip-rule="evenodd"/></g><defs><clipPath id="a"><path fill="#fff" d="M0 0h32v32H0z"/></clipPath></defs></svg>
